src/assets/Check.svg

<svg fill="none" height="12" viewBox="0 0 14 12" width="14" xmlns="http://www.w3.org/2000/svg"><path clip-rule="evenodd" d="m12.6533.12431c.3499.221625.4539.684967.2323 1.0349l-6.56641 10.36799c-.36739.5801-1.19673.6259-1.62569.0897l-3.53108-4.41389c-.258754-.32345-.206313-.79542.11713-1.05417.32345-.25876.79542-.20632 1.05418.11713l2.87432 3.5929c.10724.13405.31458.12262.40643-.02241l6.00392-9.479825c.2216-.34993568.6849-.4539512 1.0349-.232325z" fill="#272a2a" fill-rule="evenodd"/></svg>

<svg width="14" height="12" viewBox="0 0 14 12" fill="none" xmlns="http://www.w3.org/2000/svg">
<path fill-rule="evenodd" clip-rule="evenodd" d="M12.6533 0.12431C13.0032 0.345935 13.1072 0.809277 12.8856 1.15921L6.31919 11.5272C5.9518 12.1073 5.12246 12.1531 4.6935 11.6169L1.16242 7.20301C0.903666 6.87956 0.956107 6.40759 1.27955 6.14884C1.603 5.89008 2.07497 5.94252 2.33373 6.26597L5.20805 9.85887C5.31529 9.99292 5.52263 9.98149 5.61448 9.83646L11.6184 0.356635C11.84 0.00669932 12.3033 -0.0973162 12.6533 0.12431Z" fill="#272A2A"/>
</svg>
